MGCommon/image/flags/4x3/jo.svg

<svg xmlns="http://www.w3.org/2000/svg" height="480" width="640" version="1" viewBox="0 0 640 480">
  <defs>
    <clipPath id="a">
      <path fill-opacity=".67" d="M-117.82 0h682.67v512h-682.67z"/>
    </clipPath>
  </defs>
  <g clip-path="url(#a)" transform="translate(110.46) scale(.9375)">
    <g fill-rule="evenodd" stroke-width="1pt">
      <path d="M-117.82 0H906.182v170.667H-117.82z"/>
      <path fill="#fff" d="M-117.82 170.667H906.182v170.667H-117.82z"/>
      <path fill="#090" d="M-117.82 341.334H906.182v170.667H-117.82z"/>
      <path d="M-117.82 512.001l512.001-256L-117.82 0v512.001z" fill="red"/>
      <path fill="#fff" d="M24.528 288.964l5.664-24.82H4.743l22.928-11.045-15.867-19.9 22.93 11.05 5.664-24.82 5.661 24.82 22.93-11.05-15.866 19.9 22.93 11.045H50.602l5.663 24.82-15.867-19.92z"/>
    </g>
  </g>
</svg>

<svg xmlns="http://www.w3.org/2000/svg" id="flag-icons-jo" viewBox="0 0 640 480">
  <defs>
    <clipPath id="jo-a">
      <path fill-opacity=".7" d="M-117.8 0h682.6v512h-682.6z"/>
    </clipPath>
  </defs>
  <g clip-path="url(#jo-a)" transform="translate(110.5)scale(.9375)">
    <g fill-rule="evenodd" stroke-width="1pt">
      <path fill="#000001" d="M-117.8 0h1024v170.7h-1024z"/>
      <path fill="#fff" d="M-117.8 170.7h1024v170.6h-1024z"/>
      <path fill="#090" d="M-117.8 341.3h1024V512h-1024z"/>
      <path fill="red" d="m-117.8 512 512-256-512-256z"/>
      <path fill="#fff" d="m24.5 289 5.7-24.9H4.7l23-11-15.9-19.9 23 11 5.6-24.8 5.7 24.9L69 233.2l-16 19.9 23 11H50.6l5.7 24.9-15.9-20z"/>
    </g>
  </g>
</svg>
